IMB-X-Files/The-Ambassadors-Assets/65f43207d485843526416829_grata-white.svg

<svg fill="none" height="58" viewBox="0 0 155 58" width="155" xmlns="http://www.w3.org/2000/svg" xmlns:xlink="http://www.w3.org/1999/xlink"><clipPath id="a"><path d="m.555542.662354h154.444v57.2016h-154.444z"/></clipPath><g clip-path="url(#a)" fill="#fff"><path d="m20.4039 22.3714h7.8588v-7.708c.0004-1.5812-.6233-3.0988-1.7357-4.2234-.5507-.55715-1.2062-1.00005-1.9288-1.3032-.7227-.30314-1.4981-.46057-2.2818-.46322h-15.54068c-.78535.00589-1.56147.16973-2.28209.48176-.72277.29425-1.3787.73119-1.92852 1.28466-.5458.5621-.98183 1.2211-1.28568 1.9431-.307188.7267-.465655 1.5075-.46606 2.2963v15.5767c.003201.7819.155938 1.5558.44999 2.2803.30379.7259.74591 1.3858 1.30175 1.9431.54982.5535 1.20575.9904 1.92852 1.2847.72278.3014 1.4989.4543 2.28209.4496h7.66588v-7.8686c-.0021-.7816.1501-1.556.448-2.2787s.7355-1.3796 1.2879-1.9331c.5524-.5534 1.2086-.9925 1.9311-1.2921s1.497-.4538 2.2793-.4538"/><path d="m35.9292 22.3726h-7.6658v7.8847c-.0043 1.576-.6316 3.0864-1.7454 4.2024-1.1137 1.1159-2.6237 1.7468-4.2009 1.7552h-7.8748v7.7884c-.0021.7816.1501 1.556.448 2.2787s.7355 1.3796 1.2879 1.933c.5524.5535 1.2086.9926 1.9311 1.2922s1.497.4538 2.2793.4538h15.5246c.7814.0015 1.5555-.1508 2.278-.4484s1.3792-.7346 1.9326-1.2859c.5558-.5573.9979-1.2172 1.3017-1.9431.2941-.7245.4468-1.4985.45-2.2803v-15.5767c-.0032-.7818-.1559-1.5558-.45-2.2803-.3038-.7259-.7459-1.3858-1.3017-1.9431-.5534-.5513-1.2101-.9883-1.9326-1.2859s-1.4966-.45-2.278-.4484"/><path d="m41.8933 13.1548c.0043.8916-.2588 1.7642-.7553 2.5051-.4948.7231-1.1942 1.2823-2.0089 1.6058-.8103.3326-1.7013.417-2.5597.2426s-1.6456-.5998-2.2616-1.2221c-.6093-.6241-1.0247-1.4112-1.1958-2.2662-.1711-.8549-.0907-1.7411.2315-2.5514.2809-.6798.7256-1.2797 1.2945-1.74638.5688-.4667 1.2443-.78574 1.9663-.92875.722-.14302 1.4681-.10558 2.1722.10899.704.21456 1.344.5996 1.8633 1.12094.4224.4208.7565.9216.9828 1.4731s.3402 1.1425.335 1.7385"/><path d="m81.4761 28.2181v13.9066h-4.2909v-5.6847c-1.6071 5.1227-5.9785 6.054-9.0802 6.054-1.7453.0023-3.4727-.3505-5.0772-1.0368-1.6044-.6864-3.0521-1.692-4.255-2.9556s-2.1358-2.7586-2.7417-4.394c-.606-1.6355-.8723-3.3771-.7829-5.1187 0-8.0292 5.8499-13.4088 13.9175-13.4088 5.8499 0 10.7355 3.2117 12.0051 8.6715l-4.4999 1.9913c-1.1089-4.3197-3.3428-6.1825-7.7784-6.1825-5.5445 0-8.6141 2.5212-8.6141 8.9445 0 6.4234 2.4589 9.2497 8.8552 9.2497 4.0659 0 7.1194-2.0234 7.6016-5.8774h-7.4731v-4.1591z"/><path d="m97.2384 23.7705v4.4803c-.7952-.2707-1.6378-.3746-2.475-.3051-2.9731 0-5.0623 2.0233-5.0623 6.6482v7.5956h-4.8213v-18.3869h4.8052v5.1869c.4821-2.7621 1.8321-5.492 5.3195-5.492.7549-.041 1.5111.0514 2.2339.273z"/><path d="m113.074 33.0033c0-3.6613-1.527-5.2832-5.063-5.2832-3.535 0-4.966 1.6059-4.966 5.2832 0 3.6774 1.607 5.1869 4.966 5.1869s5.063-1.6058 5.063-5.1869zm4.58-9.2014v18.3226h-4.725v-3.9985c-.447 1.3295-1.318 2.4762-2.479 3.2649-1.16.7887-2.548 1.1761-3.949 1.103-5.207 0-8.2931-3.8059-8.2931-9.4906 0-5.6846 2.9731-9.635 8.0351-9.635 1.462-.0711 2.907.3377 4.114 1.1641s2.11 2.025 2.572 3.4125v-4.143z"/><path d="m128.612 27.9446v9.9402h4.821v4.1913h-3.889c-.756.0425-1.513-.0759-2.22-.3472s-1.348-.6894-1.881-1.2267c-.533-.5374-.946-1.1816-1.212-1.8902-.265-.7087-.377-1.4655-.328-2.2206v-8.4468h-3.504v-4.143h3.504v-5.492h4.725v5.4598h5.287v4.1752z"/><path d="m81.5547 28.2181v13.9066h-4.291v-5.6847c-1.6071 5.1227-6.0105 6.054-9.0962 6.054-1.7453.0023-3.4727-.3505-5.0772-1.0368-1.6044-.6864-3.0521-1.692-4.255-2.9556s-2.1358-2.7586-2.7417-4.394c-.606-1.6355-.8723-3.3771-.7829-5.1187 0-8.0292 5.8659-13.4088 13.9336-13.4088 5.8498 0 10.7194 3.2117 11.989 8.6715l-4.4999 1.9913c-1.125-4.3197-3.3589-6.1825-7.7945-6.1825-5.5445 0-8.5819 2.5212-8.5819 8.9445 0 6.4234 2.4589 9.2497 8.8712 9.2497 4.066 0 7.1195-2.0234 7.5855-5.8774h-7.473v-4.1591z"/><path d="m97.2405 23.7693v4.4803c-.775-.262-1.5948-.3658-2.4107-.3051-2.9731 0-5.0623 2.0234-5.0623 6.6482v7.5956h-4.8213v-18.3869h4.8213v5.1869c.466-2.7621 1.816-5.492 5.3195-5.492.7281-.0316 1.4563.0607 2.1535.273z"/><path d="m113.134 33.0027c0-3.6614-1.607-5.2833-5.063-5.2833-3.455 0-4.949 1.6059-4.949 5.2833 0 3.6773 1.607 5.1868 4.949 5.1868 3.343 0 5.063-1.6058 5.063-5.1868zm4.58-9.2015v18.3227h-4.741v-3.9986c-.442 1.3104-1.295 2.4432-2.433 3.2302-1.138.7869-2.5 1.1859-3.883 1.1377-5.223 0-8.3085-3.8058-8.3085-9.4905s2.9735-9.6351 8.0355-9.6351c1.447-.0577 2.874.358 4.063 1.184s2.076 2.0172 2.526 3.3927v-4.1431z"/><path d="m128.694 27.9446v9.9402h4.822v4.1913h-3.905c-.757.0422-1.514-.0761-2.222-.3473s-1.35-.6891-1.884-1.2261c-.535-.537-.949-1.181-1.216-1.8896-.268-.7087-.382-1.4658-.335-2.2217v-8.4468h-3.504v-4.143h3.504v-5.492h4.74v5.4598h5.272v4.1752z"/><path d="m150.513 33.0033c0-3.6613-1.607-5.2832-5.063-5.2832-3.455 0-4.949 1.6059-4.949 5.2832 0 3.6774 1.607 5.1869 4.949 5.1869 3.343 0 5.063-1.6058 5.063-5.1869zm4.58-9.2015v18.3227h-4.725v-3.9985c-.443 1.3131-1.298 2.4479-2.44 3.2351-1.141.7872-2.506 1.1845-3.892 1.1328-5.223 0-8.309-3.8059-8.309-9.4906s2.974-9.635 8.036-9.635c1.449-.056 2.876.3602 4.068 1.1857 1.191.8255 2.082 2.0156 2.537 3.3909v-4.1431z"/></g></svg>

<svg width="155" height="58" viewBox="0 0 155 58" fill="none" xmlns="http://www.w3.org/2000/svg">
    <g clip-path="url(#clip0_314_1621)">
        <path
            d="M20.4039 22.3714H28.2627V14.6634C28.2631 13.0822 27.6394 11.5646 26.527 10.44C25.9763 9.88285 25.3208 9.43995 24.5982 9.1368C23.8755 8.83366 23.1001 8.67623 22.3164 8.67358H6.77572C5.99037 8.67947 5.21425 8.84331 4.49363 9.15534C3.77086 9.44959 3.11493 9.88653 2.56511 10.44C2.01931 11.0021 1.58328 11.6611 1.27943 12.3831C0.972242 13.1098 0.813775 13.8906 0.81337 14.6794L0.81337 30.2561C0.816571 31.038 0.969308 31.8119 1.26336 32.5364C1.56715 33.2623 2.00927 33.9222 2.56511 34.4795C3.11493 35.033 3.77086 35.4699 4.49363 35.7642C5.21641 36.0656 5.99253 36.2185 6.77572 36.2138H14.4416V28.3452C14.4395 27.5636 14.5917 26.7892 14.8896 26.0665C15.1875 25.3438 15.6251 24.6869 16.1775 24.1334C16.7299 23.58 17.3861 23.1409 18.1086 22.8413C18.8311 22.5417 19.6056 22.3875 20.3879 22.3875"
            fill="white" />
        <path
            d="M35.9292 22.3726H28.2634V30.2573C28.2591 31.8333 27.6318 33.3437 26.518 34.4597C25.4043 35.5756 23.8943 36.2065 22.3171 36.2149H14.4423V44.0033C14.4402 44.7849 14.5924 45.5593 14.8903 46.282C15.1882 47.0047 15.6258 47.6616 16.1782 48.215C16.7306 48.7685 17.3868 49.2076 18.1093 49.5072C18.8318 49.8068 19.6063 49.961 20.3886 49.961H35.9132C36.6946 49.9625 37.4687 49.8102 38.1912 49.5126C38.9137 49.215 39.5704 48.778 40.1238 48.2267C40.6796 47.6694 41.1217 47.0095 41.4255 46.2836C41.7196 45.5591 41.8723 44.7851 41.8755 44.0033V28.4266C41.8723 27.6448 41.7196 26.8708 41.4255 26.1463C41.1217 25.4204 40.6796 24.7605 40.1238 24.2032C39.5704 23.6519 38.9137 23.2149 38.1912 22.9173C37.4687 22.6197 36.6946 22.4673 35.9132 22.4689"
            fill="white" />
        <path
            d="M41.8933 13.1548C41.8976 14.0464 41.6345 14.919 41.138 15.6599C40.6432 16.383 39.9438 16.9422 39.1291 17.2657C38.3188 17.5983 37.4278 17.6827 36.5694 17.5083C35.711 17.3339 34.9238 16.9085 34.3078 16.2862C33.6985 15.6621 33.2831 14.875 33.112 14.02C32.9409 13.1651 33.0213 12.2789 33.3435 11.4686C33.6244 10.7888 34.0691 10.1889 34.638 9.72222C35.2068 9.25552 35.8823 8.93648 36.6043 8.79347C37.3263 8.65045 38.0724 8.68789 38.7765 8.90246C39.4805 9.11702 40.1205 9.50206 40.6398 10.0234C41.0622 10.4442 41.3963 10.945 41.6226 11.4965C41.8489 12.048 41.9628 12.639 41.9576 13.235"
            fill="white" />
        <path
            d="M81.4761 28.2181V42.1247H77.1852V36.44C75.5781 41.5627 71.2067 42.494 68.105 42.494C66.3597 42.4963 64.6323 42.1435 63.0278 41.4572C61.4234 40.7708 59.9757 39.7652 58.7728 38.5016C57.5699 37.238 56.637 35.743 56.0311 34.1076C55.4251 32.4721 55.1588 30.7305 55.2482 28.9889C55.2482 20.9597 61.0981 15.5801 69.1657 15.5801C75.0156 15.5801 79.9012 18.7918 81.1708 24.2516L76.6709 26.2429C75.562 21.9232 73.3281 20.0604 68.8925 20.0604C63.348 20.0604 60.2784 22.5816 60.2784 29.0049C60.2784 35.4283 62.7373 38.2546 69.1336 38.2546C73.1995 38.2546 76.253 36.2312 76.7352 32.3772H69.2621V28.2181H81.4761Z"
            fill="white" />
        <path
            d="M97.2384 23.7705V28.2508C96.4432 27.9801 95.6006 27.8762 94.7634 27.9457C91.7903 27.9457 89.7011 29.969 89.7011 34.5939V42.1895H84.8798V23.8026H89.685V28.9895C90.1671 26.2274 91.5171 23.4975 95.0045 23.4975C95.7594 23.4565 96.5156 23.5489 97.2384 23.7705Z"
            fill="white" />
        <path
            d="M113.074 33.0033C113.074 29.342 111.547 27.7201 108.011 27.7201C104.476 27.7201 103.045 29.326 103.045 33.0033C103.045 36.6807 104.652 38.1902 108.011 38.1902C111.37 38.1902 113.074 36.5844 113.074 33.0033ZM117.654 23.8019V42.1245H112.929V38.126C112.482 39.4555 111.611 40.6022 110.45 41.3909C109.29 42.1796 107.902 42.567 106.501 42.4939C101.294 42.4939 98.2079 38.688 98.2079 33.0033C98.2079 27.3187 101.181 23.3683 106.243 23.3683C107.705 23.2972 109.15 23.706 110.357 24.5324C111.564 25.3588 112.467 26.5574 112.929 27.9449V23.8019H117.654Z"
            fill="white" />
        <path
            d="M128.612 27.9446V37.8848H133.433V42.0761H129.544C128.788 42.1186 128.031 42.0002 127.324 41.7289C126.617 41.4576 125.976 41.0395 125.443 40.5022C124.91 39.9648 124.497 39.3206 124.231 38.612C123.966 37.9033 123.854 37.1465 123.903 36.3914V27.9446H120.399V23.8016H123.903V18.3096H128.628V23.7694H133.915V27.9446H128.612Z"
            fill="white" />
        <path
            d="M81.5547 28.2181V42.1247H77.2637V36.44C75.6566 41.5627 71.2532 42.494 68.1675 42.494C66.4222 42.4963 64.6948 42.1435 63.0903 41.4572C61.4859 40.7708 60.0382 39.7652 58.8353 38.5016C57.6324 37.238 56.6995 35.743 56.0936 34.1076C55.4876 32.4721 55.2213 30.7305 55.3107 28.9889C55.3107 20.9597 61.1766 15.5801 69.2443 15.5801C75.0941 15.5801 79.9637 18.7918 81.2333 24.2516L76.7334 26.2429C75.6084 21.9232 73.3745 20.0604 68.9389 20.0604C63.3944 20.0604 60.357 22.5816 60.357 29.0049C60.357 35.4283 62.8159 38.2546 69.2282 38.2546C73.2942 38.2546 76.3477 36.2312 76.8137 32.3772H69.3407V28.2181H81.5547Z"
            fill="white" />
        <path
            d="M97.2405 23.7693V28.2496C96.4655 27.9876 95.6457 27.8838 94.8298 27.9445C91.8567 27.9445 89.7675 29.9679 89.7675 34.5927V42.1883H84.9462V23.8014H89.7675V28.9883C90.2335 26.2262 91.5835 23.4963 95.087 23.4963C95.8151 23.4647 96.5433 23.557 97.2405 23.7693Z"
            fill="white" />
        <path
            d="M113.134 33.0027C113.134 29.3413 111.527 27.7194 108.071 27.7194C104.616 27.7194 103.122 29.3253 103.122 33.0027C103.122 36.68 104.729 38.1895 108.071 38.1895C111.414 38.1895 113.134 36.5837 113.134 33.0027ZM117.714 23.8012V42.1239H112.973V38.1253C112.531 39.4357 111.678 40.5685 110.54 41.3555C109.402 42.1424 108.04 42.5414 106.657 42.4932C101.434 42.4932 98.3485 38.6874 98.3485 33.0027C98.3485 27.318 101.322 23.3676 106.384 23.3676C107.831 23.3099 109.258 23.7256 110.447 24.5516C111.636 25.3776 112.523 26.5688 112.973 27.9443V23.8012H117.714Z"
            fill="white" />
        <path
            d="M128.694 27.9446V37.8848H133.516V42.0761H129.611C128.854 42.1183 128.097 42 127.389 41.7288C126.681 41.4576 126.039 41.0397 125.505 40.5027C124.97 39.9657 124.556 39.3217 124.289 38.6131C124.021 37.9044 123.907 37.1473 123.954 36.3914V27.9446H120.45V23.8016H123.954V18.3096H128.694V23.7694H133.966V27.9446H128.694Z"
            fill="white" />
        <path
            d="M150.513 33.0033C150.513 29.342 148.906 27.7201 145.45 27.7201C141.995 27.7201 140.501 29.326 140.501 33.0033C140.501 36.6807 142.108 38.1902 145.45 38.1902C148.793 38.1902 150.513 36.5844 150.513 33.0033ZM155.093 23.8018V42.1245H150.368V38.126C149.925 39.4391 149.07 40.5739 147.928 41.3611C146.787 42.1483 145.422 42.5456 144.036 42.4939C138.813 42.4939 135.727 38.688 135.727 33.0033C135.727 27.3186 138.701 23.3683 143.763 23.3683C145.212 23.3123 146.639 23.7285 147.831 24.554C149.022 25.3795 149.913 26.5696 150.368 27.9449V23.8018H155.093Z"
            fill="white" />
    </g>
    <defs>
        <clipPath id="clip0_314_1621">
            <rect width="154.444" height="57.2016" fill="white" transform="translate(0.555542 0.662354)" />
        </clipPath>
    </defs>
</svg>
